packages/dnb-eufemia/assets/icons/cloud_sync_medium.svg

<svg width="24" height="24" viewBox="0 0 24 24" fill="none" xmlns="http://www.w3.org/2000/svg">
<path d="M5.06642 7.08701L5.2056 7.82398L5.06642 7.08701ZM8.12631 8.32039C8.48545 8.52678 8.94389 8.40295 9.15027 8.04381C9.35666 7.68467 9.23283 7.22623 8.87369 7.01985L8.12631 8.32039ZM9.2 17.75C9.61421 17.75 9.95 17.4142 9.95 17C9.95 16.5858 9.61421 16.25 9.2 16.25V17.75ZM18.2127 8.77778C18.1612 9.18878 18.4527 9.5637 18.8637 9.61519C19.2747 9.66668 19.6496 9.37524 19.7011 8.96424L18.2127 8.77778ZM11.8331 15.5241C11.6968 15.9152 11.9033 16.3428 12.2944 16.4792C12.6856 16.6156 13.1132 16.409 13.2495 16.0179L11.8331 15.5241ZM22.4586 15.771L21.7504 16.0179L21.8227 16.2251L21.9952 16.3607L22.4586 15.771ZM23.1668 19.4759C23.3032 19.0848 23.0966 18.6572 22.7055 18.5208C22.3144 18.3844 21.8868 18.591 21.7504 18.9821L23.1668 19.4759ZM12.5413 19.229L13.2495 18.9821L13.1773 18.7749L13.0048 18.6394L12.5413 19.229ZM22.75 16V16.75C23.1642 16.75 23.5 16.4142 23.5 16H22.75ZM23.5 12.75C23.5 12.3358 23.1642 12 22.75 12C22.3358 12 22 12.3358 22 12.75H23.5ZM19.5 15.25C19.0858 15.25 18.75 15.5858 18.75 16C18.75 16.4142 19.0858 16.75 19.5 16.75V15.25ZM15.5 19.75C15.9142 19.75 16.25 19.4142 16.25 19C16.25 18.5858 15.9142 18.25 15.5 18.25V19.75ZM12.25 19V18.25C11.8358 18.25 11.5 18.5858 11.5 19H12.25ZM11.5 22.25C11.5 22.6642 11.8358 23 12.25 23C12.6642 23 13 22.6642 13 22.25H11.5ZM6 16.25C3.65279 16.25 1.75 14.3472 1.75 12H0.25C0.25 15.1756 2.82436 17.75 6 17.75V16.25ZM1.75 12C1.75 9.92481 3.23807 8.19557 5.2056 7.82398L4.92723 6.35003C2.26427 6.85297 0.25 9.19045 0.25 12H1.75ZM5.81155 7.17232C6.1951 3.8223 9.18356 1.75 12 1.75V0.25C8.54448 0.25 4.8049 2.7777 4.32128 7.00169L5.81155 7.17232ZM5.2056 7.82398C6.20057 7.63606 7.24988 7.81674 8.12631 8.32039L8.87369 7.01985C7.68971 6.33946 6.27694 6.09512 4.92723 6.35003L5.2056 7.82398ZM6 17.75H9.2V16.25H6V17.75ZM12 1.75C16.0916 1.75 18.6366 5.39441 18.2127 8.77778L19.7011 8.96424C20.2228 4.79997 17.1057 0.25 12 0.25V1.75ZM13.2495 16.0179C13.8625 14.2598 15.5351 13 17.5 13V11.5C14.8774 11.5 12.6497 13.1821 11.8331 15.5241L13.2495 16.0179ZM17.5 13C19.4649 13 21.1374 14.2598 21.7504 16.0179L23.1668 15.5241C22.3503 13.1821 20.1225 11.5 17.5 11.5V13ZM21.7504 18.9821C21.1374 20.7402 19.4649 22 17.5 22V23.5C20.1225 23.5 22.3503 21.8179 23.1668 19.4759L21.7504 18.9821ZM17.5 22C15.5351 22 13.8625 20.7402 13.2495 18.9821L11.8331 19.4759C12.6497 21.8179 14.8774 23.5 17.5 23.5V22ZM23.5 16V12.75H22V16H23.5ZM22.75 15.25H19.5V16.75H22.75V15.25ZM15.5 18.25H12.25V19.75H15.5V18.25ZM11.5 19V22.25H13V19H11.5ZM21.9952 16.3607L22.2866 16.5897L23.2134 15.4103L22.922 15.1813L21.9952 16.3607ZM13.0048 18.6394L12.7135 18.4104L11.7865 19.5896L12.0779 19.8186L13.0048 18.6394Z" fill="black"/>
</svg>

<svg width="24" height="24" viewBox="0 0 24 24" fill="none" xmlns="http://www.w3.org/2000/svg"><path d="m5.066 7.087.14.737-.14-.737Zm3.06 1.233a.75.75 0 1 0 .748-1.3l-.748 1.3ZM9.2 17.75a.75.75 0 0 0 0-1.5v1.5Zm9.013-8.972a.75.75 0 0 0 1.488.186l-1.488-.186Zm-6.38 6.746a.75.75 0 0 0 1.416.494l-1.416-.494ZM22.46 16l-.709.247.176.503h.533V16Zm.708 3.476a.75.75 0 0 0-1.417-.494l1.417.494ZM12.54 19l.708-.247-.175-.503h-.533V19Zm10.209-3v.75a.75.75 0 0 0 .75-.75h-.75Zm.75-3.25a.75.75 0 0 0-1.5 0h1.5Zm-4 2.5a.75.75 0 0 0 0 1.5v-1.5Zm-4 4.5a.75.75 0 0 0 0-1.5v1.5ZM12.25 19v-.75a.75.75 0 0 0-.75.75h.75Zm-.75 3.25a.75.75 0 0 0 1.5 0h-1.5Zm-5.5-6A4.25 4.25 0 0 1 1.75 12H.25A5.75 5.75 0 0 0 6 17.75v-1.5ZM1.75 12a4.252 4.252 0 0 1 3.456-4.176L4.927 6.35A5.752 5.752 0 0 0 .25 12h1.5Zm4.062-4.828C6.195 3.822 9.184 1.75 12 1.75V.25c-3.456 0-7.195 2.528-7.679 6.752l1.49.17Zm-.606.652a4.301 4.301 0 0 1 2.92.496l.748-1.3a5.801 5.801 0 0 0-3.947-.67l.279 1.474ZM6 17.75h3.2v-1.5H6v1.5Zm6-16c4.092 0 6.637 3.644 6.213 7.028l1.488.186C20.223 4.8 17.106.25 12 .25v1.5Zm1.25 14.268A4.502 4.502 0 0 1 17.5 13v-1.5a6.002 6.002 0 0 0-5.667 4.024l1.416.494ZM17.5 13c1.915 0 3.62 1.438 4.25 3.247l1.417-.494c-.799-2.291-2.995-4.253-5.667-4.253V13Zm4.25 5.982A4.502 4.502 0 0 1 17.5 22v1.5a6.002 6.002 0 0 0 5.667-4.024l-1.417-.494ZM17.5 22c-1.915 0-3.62-1.438-4.25-3.247l-1.417.494c.799 2.291 2.995 4.253 5.667 4.253V22Zm6-6v-3.25H22V16h1.5Zm-.75-.75H19.5v1.5h3.25v-1.5Zm-7.25 3h-3.25v1.5h3.25v-1.5Zm-4 .75v3.25H13V19h-1.5Zm10.959-2.25h.291v-1.5h-.291v1.5Zm-9.918 1.5h-.291v1.5h.291v-1.5Z" fill="#000"/></svg>
